public/logo.svg

<svg width="125" height="120" viewBox="0 0 125 120" fill="none" xmlns="http://www.w3.org/2000/svg">
<path d="M55.8524 86.4464C54.2896 89.8351 51.0288 89.4146 51.0288 89.4146C51.0288 89.4146 49.0735 86.1621 50.6362 82.7734C52.199 79.3848 56.6877 77.1424 56.6877 77.1424C56.6877 77.1424 57.4145 83.0576 55.8517 86.4463L55.8524 86.4464Z" fill="#6ABC6D"/>
<path d="M88.1484 72.8657C89.9263 72.8171 91.6643 72.7374 93.3571 72.6332C104.827 69.6209 114.95 64.8214 123.479 58.3422C124.114 57.8598 124.115 57.077 123.481 56.5932C122.848 56.1095 121.82 56.1089 121.185 56.5913C108.273 66.3988 93.0893 70.9574 79.1611 72.8262C82.3131 72.9421 85.3264 72.9427 88.1476 72.8657H88.1484Z" fill="#1D1D1B"/>
<path d="M93.4471 65.9677C103.485 61.8824 112.231 55.9549 118.742 48.8263C119.253 48.2655 119.072 47.495 118.336 47.1052C117.6 46.7153 116.588 46.8539 116.076 47.414C103.192 61.5218 82.0485 69.9442 59.5165 69.9442C58.5004 69.9442 57.4878 69.9267 56.4785 69.8924C60.5292 70.8378 64.5484 71.519 68.4587 71.9923C77.1977 71.1609 85.7046 69.1192 93.4488 65.9677H93.4471Z" fill="#1D1D1B"/>
<path d="M121.759 69.1378C121.612 69.1799 106.838 73.3662 87.4451 73.8959C69.6261 74.3835 44.1879 71.7759 24.1982 56.5913C23.563 56.1089 22.535 56.1102 21.9016 56.5933C21.2682 57.077 21.2699 57.8598 21.9042 58.3422C26.1053 61.5333 30.6942 64.3163 35.6393 66.6798C22.5954 63.0019 11.1185 56.3498 2.95687 47.4132C2.44501 46.8525 1.43319 46.7146 0.696863 47.1044C-0.0394654 47.4942 -0.221422 48.2647 0.291287 48.8255C6.80176 55.9541 15.5484 61.881 25.5858 65.9669C32.9261 68.9546 40.9509 70.9425 49.2104 71.8497C51.0223 72.3826 52.8691 72.8702 54.7507 73.3105C55.6044 73.51 56.4674 73.6971 57.3347 73.8778C38.2913 73.2801 23.8002 69.1877 23.6242 69.1378C22.7859 68.897 21.8489 69.2194 21.5317 69.8585C21.2154 70.4977 21.6389 71.2106 22.4781 71.4521C23.0988 71.6302 37.9019 75.8236 57.8219 76.3682C59.2171 76.4064 60.6014 76.4251 61.9762 76.4251C65.6222 76.4251 69.195 76.2892 72.6879 76.0211C76.1833 76.2885 79.7587 76.4251 83.408 76.4251C84.782 76.4251 86.168 76.4064 87.5624 76.3682C107.482 75.8236 122.285 71.6302 122.906 71.4521C123.745 71.2112 124.169 70.4977 123.853 69.8585C123.536 69.2194 122.599 68.897 121.76 69.1378H121.759Z" fill="#1D1D1B"/>
<path d="M90.3724 26.6782L90.3693 26.6905C90.2405 27.2023 89.55 27.3028 89.2739 26.8515C89.0235 26.4423 88.7679 26.0361 88.5093 25.6351C87.7673 24.4833 86.9903 23.3613 86.1886 22.2577C85.7877 21.707 85.3797 21.1613 84.9664 20.6198C84.5522 20.0803 84.1318 19.5439 83.7062 19.0147C82.854 17.9542 81.976 16.9162 81.0723 15.9008C80.1695 14.8855 79.2359 13.8968 78.2724 12.9398C77.3079 11.9829 76.3104 11.0599 75.2614 10.1963C74.7379 9.76448 74.201 9.34808 73.6476 8.95526C73.3395 8.7368 73.0262 8.52654 72.7068 8.32552C72.6697 8.30091 72.6326 8.35526 72.6676 8.38091C72.9696 8.60552 73.2643 8.83731 73.5518 9.07731C74.0701 9.50705 74.5689 9.96038 75.0542 10.426C76.0239 11.3573 76.938 12.345 77.8159 13.3604C78.6939 14.3778 79.5379 15.4229 80.3499 16.4896C81.1629 17.5572 81.9482 18.6444 82.7045 19.7511C83.0827 20.3039 83.4547 20.8598 83.8195 21.4218C84.1843 21.9839 84.5419 22.549 84.8933 23.1172C85.595 24.2546 86.2669 25.4095 86.8996 26.5777C87.1521 27.0443 87.3984 27.5141 87.6375 27.9849C87.8611 28.4269 87.4757 28.9274 86.9872 28.8341C86.9367 28.8248 86.8873 28.8125 86.8358 28.8013C75.1903 25.9367 70.5149 19.9603 67.5338 14.226C64.7205 8.81372 63.4149 3.61582 59.1827 1.45173C58.9303 1.32353 58.9756 0.952247 59.2507 0.884555C78.5228 -3.83233 94.212 11.1183 90.3703 26.6782" fill="#006837"/>
<mask id="mask0_60_572" style="mask-type:luminance" maskUnits="userSpaceOnUse" x="3" y="0" width="117" height="45">
<path d="M119.821 0.5625H3.0625V44.9365H119.821V0.5625Z" fill="white"/>
</mask>
<g mask="url(#mask0_60_572)">
<path d="M3.63258 42.4616L20.887 28.5735C21.2631 28.271 21.4826 27.8146 21.4826 27.3315V6.41165C21.4826 5.52858 22.2009 4.81371 23.0871 4.81371H32.5057C33.3929 4.81371 34.1112 5.52858 34.1112 6.41165V14.5829C34.1112 15.9264 35.6765 16.67 36.7255 15.8249L55.3855 0.804513C55.7101 0.544003 56.1893 0.662976 56.3624 1.04041L56.3655 1.04861C56.7354 1.85476 57.3434 2.51117 58.1256 2.94398C60.0825 4.03115 61.2005 6.71934 62.6123 10.1234C62.6885 10.305 62.5041 10.4855 62.3207 10.4096C61.5323 10.0865 60.607 10.2014 59.9166 10.7573L18.1232 44.398C17.6997 44.7385 17.1711 44.9252 16.6249 44.9252H4.51055C3.19772 44.9252 2.61446 43.2832 3.63464 42.4616H3.63258ZM90.4508 30.1079C90.4611 30.0956 90.4714 30.0822 90.4807 30.0709C92.1655 29.7868 93.5371 28.5735 94.0121 26.9264L94.0204 26.8976C94.2801 25.9838 94.4831 25.0566 94.6304 24.1254C94.7201 23.5613 95.3899 23.3048 95.8372 23.6638L119.191 42.4616C120.211 43.2832 119.628 44.9252 118.315 44.9252H106.2C105.655 44.9252 105.126 44.7385 104.702 44.398L88.6145 31.4494C89.3173 31.1756 89.951 30.7212 90.4508 30.1079ZM55.9894 27.3776H60.3834V31.7509H55.9894V27.3776ZM62.4412 27.3776H66.8352V31.7509H62.4412V27.3776ZM55.9894 20.7787H60.3834V25.152H55.9894V20.7787ZM62.4412 25.152H66.8352V20.7787H62.4412V25.152Z" fill="#6ABC6D"/>
</g>
<path d="M87.7918 61.7358C85.658 61.7358 83.824 61.3014 82.2897 60.4326C80.7643 59.555 79.5872 58.3352 78.7584 56.7731C77.9383 55.2022 77.5283 53.3812 77.5283 51.31C77.5283 49.2302 77.9383 47.4092 78.7584 45.847C79.5872 44.2761 80.7643 43.0563 82.2897 42.1875C83.824 41.3099 85.658 40.8711 87.7918 40.8711C89.9256 40.8711 91.7552 41.3099 93.2807 42.1875C94.8149 43.0563 95.992 44.2761 96.812 45.847C97.6409 47.4092 98.0553 49.2302 98.0553 51.31C98.0553 53.3812 97.6409 55.2022 96.812 56.7731C95.992 58.3352 94.8149 59.555 93.2807 60.4326C91.7552 61.3014 89.9256 61.7358 87.7918 61.7358ZM87.8315 56.8784C88.6074 56.8784 89.2643 56.6414 89.8022 56.1675C90.34 55.6936 90.75 55.0354 91.0322 54.1929C91.3232 53.3505 91.4687 52.3763 91.4687 51.2706C91.4687 50.1472 91.3232 49.1643 91.0322 48.3218C90.75 47.4794 90.34 46.8212 89.8022 46.3473C89.2643 45.8734 88.6074 45.6364 87.8315 45.6364C87.0291 45.6364 86.3502 45.8734 85.7947 46.3473C85.248 46.8212 84.8291 47.4794 84.5382 48.3218C84.256 49.1643 84.1149 50.1472 84.1149 51.2706C84.1149 52.3763 84.256 53.3505 84.5382 54.1929C84.8291 55.0354 85.248 55.6936 85.7947 56.1675C86.3502 56.6414 87.0291 56.8784 87.8315 56.8784Z" fill="#006837"/>
<path d="M55.9014 61.354V41.1343H62.3689V48.664H63.7974L68.7307 41.1343H76.2167L69.3788 51.2573L76.2828 61.354H68.7043L64.2471 54.6404H62.3689V61.354H55.9014Z" fill="#006837"/>
<path d="M32.9141 61.3542V34.3945H51.801V39.6864H39.461V45.2152H50.8355V50.5203H39.461V56.0623H51.801V61.3542H32.9141Z" fill="#006837"/>
<path d="M125 102.55C125 105.062 124.538 107.222 123.615 109.029C122.691 110.829 121.426 112.215 119.818 113.188C118.217 114.153 116.397 114.635 114.358 114.635C112.311 114.635 110.484 114.153 108.876 113.188C107.275 112.215 106.013 110.825 105.09 109.018C104.167 107.21 103.705 105.055 103.705 102.55C103.705 100.038 104.167 97.8825 105.09 96.0828C106.013 94.2754 107.275 92.8892 108.876 91.9243C110.484 90.9516 112.311 90.4653 114.358 90.4653C116.397 90.4653 118.217 90.9516 119.818 91.9243C121.426 92.8892 122.691 94.2754 123.615 96.0828C124.538 97.8825 125 100.038 125 102.55ZM121.468 102.55C121.468 100.636 121.156 99.0236 120.533 97.714C119.918 96.3967 119.071 95.4012 117.994 94.7272C116.924 94.0456 115.712 93.7048 114.358 93.7048C112.996 93.7048 111.781 94.0456 110.711 94.7272C109.641 95.4012 108.795 96.3967 108.172 97.714C107.556 99.0236 107.248 100.636 107.248 102.55C107.248 104.465 107.556 106.081 108.172 107.398C108.795 108.708 109.641 109.703 110.711 110.385C111.781 111.059 112.996 111.396 114.358 111.396C115.712 111.396 116.924 111.059 117.994 110.385C119.071 109.703 119.918 108.708 120.533 107.398C121.156 106.081 121.468 104.465 121.468 102.55Z" fill="black"/>
<path d="M77.8574 120V111.304H79.4156C79.9465 110.86 80.4428 110.228 80.9045 109.408C81.3662 108.589 81.7586 107.482 82.0818 106.089C82.4049 104.695 82.6281 102.906 82.7512 100.724L83.3052 90.7871H97.8826V111.304H100.56V119.966H97.1439V114.314H81.2738V120H77.8574ZM83.6168 111.304H94.4662V93.8428H86.5369L86.1676 100.724C86.0676 102.386 85.9021 103.879 85.6713 105.204C85.4481 106.529 85.1596 107.701 84.8056 108.719C84.4594 109.73 84.0631 110.592 83.6168 111.304Z" fill="black"/>
<path d="M66.6055 114.635C65.0204 114.635 63.6046 114.363 62.3581 113.82C61.1193 113.276 60.1382 112.521 59.4149 111.557C58.6993 110.584 58.3146 109.458 58.2607 108.179H61.8849C61.9311 108.876 62.1658 109.481 62.589 109.994C63.0199 110.5 63.5816 110.89 64.2741 111.166C64.9666 111.442 65.736 111.579 66.5824 111.579C67.5135 111.579 68.3368 111.419 69.0524 111.097C69.7757 110.775 70.3413 110.327 70.7491 109.753C71.1569 109.171 71.3608 108.501 71.3608 107.743C71.3608 106.954 71.1569 106.261 70.7491 105.663C70.349 105.058 69.7603 104.584 68.9832 104.239C68.2137 103.894 67.2827 103.722 66.19 103.722H64.1933V100.827H66.19C67.0672 100.827 67.8367 100.67 68.4984 100.356C69.1678 100.042 69.6911 99.6056 70.0681 99.0465C70.4451 98.4798 70.6337 97.8174 70.6337 97.0592C70.6337 96.3316 70.4682 95.6998 70.1374 95.1637C69.8142 94.62 69.3525 94.195 68.7523 93.8886C68.1598 93.5823 67.4596 93.4291 66.6517 93.4291C65.8822 93.4291 65.1628 93.5708 64.4934 93.8542C63.8316 94.1299 63.293 94.5281 62.8775 95.0489C62.462 95.562 62.2389 96.1785 62.2081 96.8984H58.757C58.7955 95.6271 59.1726 94.509 59.8882 93.544C60.6114 92.579 61.5656 91.8247 62.7505 91.2809C63.9355 90.7372 65.2513 90.4653 66.6979 90.4653C68.2137 90.4653 69.5218 90.7602 70.6221 91.3499C71.7301 91.9319 72.5842 92.7092 73.1844 93.6819C73.7923 94.6545 74.0924 95.719 74.0847 96.8754C74.0924 98.1926 73.723 99.3108 72.9767 100.23C72.238 101.149 71.2531 101.765 70.0219 102.079V102.263C71.5916 102.5 72.8074 103.121 73.6692 104.124C74.5387 105.127 74.9696 106.372 74.9619 107.858C74.9696 109.152 74.6079 110.312 73.8769 111.338C73.1536 112.364 72.1649 113.172 70.9107 113.762C69.6564 114.344 68.2214 114.635 66.6055 114.635Z" fill="black"/>
<path d="M53.5069 90.7871V114.314H49.9404V90.7871H53.5069Z" fill="black"/>
<path d="M25.8154 114.314V90.7871H29.3819V101.011H41.1661V90.7871H44.7441V114.314H41.1661V104.055H29.3819V114.314H25.8154Z" fill="black"/>
<path d="M21.7947 90.7871V93.8428H10.6221V114.314H7.05566V90.7871H21.7947Z" fill="black"/>
</svg>

<svg
    xmlns="http://www.w3.org/2000/svg"
    width="125"
    height="120"
    fill="none"
    viewBox="0 0 125 120"
  >
    <path
      fill="#6ABC6D"
      d="M55.852 86.446c-1.562 3.39-4.823 2.969-4.823 2.969s-1.956-3.253-.393-6.642c1.563-3.388 6.052-5.63 6.052-5.63s.726 5.915-.836 9.303"
    ></path>
    <path
      fill="#1D1D1B"
      d="M88.148 72.866q2.668-.075 5.21-.233c11.469-3.012 21.592-7.812 30.121-14.29.635-.483.636-1.266.002-1.75-.633-.484-1.661-.484-2.296-.002-12.912 9.808-28.096 14.366-42.024 16.235 3.152.116 6.165.117 8.987.04M93.447 65.968c10.038-4.086 18.784-10.013 25.295-17.142.511-.56.33-1.331-.406-1.72-.736-.39-1.748-.252-2.26.308-12.884 14.108-34.027 22.53-56.56 22.53q-1.523 0-3.038-.052c4.051.946 8.07 1.627 11.98 2.1 8.74-.831 17.247-2.873 24.99-6.024"
    ></path>
    <path
      fill="#1D1D1B"
      d="M121.759 69.138c-.147.042-14.921 4.228-34.314 4.758-17.819.487-43.257-2.12-63.247-17.305-.635-.482-1.663-.48-2.296.002-.634.484-.632 1.267.002 1.75 4.201 3.19 8.79 5.973 13.735 8.337-13.044-3.678-24.52-10.33-32.682-19.267-.512-.56-1.524-.698-2.26-.309-.736.39-.918 1.16-.406 1.721 6.51 7.13 15.257 13.056 25.295 17.142 7.34 2.988 15.365 4.975 23.624 5.883a102 102 0 0 0 8.125 2.028c-19.044-.598-33.535-4.69-33.71-4.74-.84-.241-1.776.081-2.093.72-.317.64.107 1.353.946 1.594.62.178 15.424 4.372 35.344 4.916q2.093.057 4.154.057 5.47-.001 10.712-.404 5.244.402 10.72.404 2.062 0 4.154-.057c19.92-.544 34.723-4.738 35.344-4.916.839-.24 1.263-.954.947-1.593-.317-.64-1.254-.962-2.093-.721z"
    ></path>
    <path
      fill="#006837"
      d="m90.372 26.678-.003.012c-.129.512-.819.613-1.095.162a61 61 0 0 0-.765-1.217 73 73 0 0 0-2.32-3.377q-.603-.826-1.223-1.638a91 91 0 0 0-1.26-1.605 81 81 0 0 0-2.634-3.114 66 66 0 0 0-2.8-2.961 44 44 0 0 0-3.01-2.744 28 28 0 0 0-1.614-1.24 21 21 0 0 0-.941-.63c-.037-.025-.074.03-.04.055q.454.337.885.696c.518.43 1.017.883 1.502 1.349.97.931 1.884 1.919 2.762 2.934a66 66 0 0 1 2.534 3.13 82.747 82.747 0 0 1 4.543 6.628 71 71 0 0 1 2.007 3.46q.378.7.737 1.407a.595.595 0 0 1-.65.85q-.075-.016-.151-.034c-11.646-2.864-16.321-8.84-19.302-14.575-2.814-5.412-4.12-10.61-8.351-12.774a.304.304 0 0 1 .068-.567c19.272-4.717 34.961 10.233 31.12 25.793"
    ></path>
    <mask
      id="mask0_60_572"
      width="117"
      height="45"
      x="3"
      y="0"
      maskUnits="userSpaceOnUse"
      style={{ maskType: "luminance" }}
    >
      <path fill="#fff" d="M119.821.563H3.063v44.374H119.82z"></path>
    </mask>
    <g mask="url(#mask0_60_572)">
      <path
        fill="#6ABC6D"
        d="m3.633 42.462 17.254-13.889c.376-.302.596-.758.596-1.242V6.411a1.6 1.6 0 0 1 1.604-1.597h9.419c.887 0 1.605.715 1.605 1.598v8.17c0 1.344 1.566 2.088 2.614 1.243L55.385.805a.636.636 0 0 1 .977.235l.003.009c.37.806.978 1.462 1.76 1.895 1.958 1.087 3.075 3.775 4.487 7.18.076.181-.108.361-.291.286a2.39 2.39 0 0 0-2.404.347L18.123 44.398c-.423.34-.952.527-1.498.527H4.51c-1.313 0-1.897-1.642-.876-2.463zM90.45 30.108l.03-.037a4.43 4.43 0 0 0 3.531-3.145l.008-.028c.26-.914.463-1.841.61-2.773a.748.748 0 0 1 1.207-.461l23.354 18.798c1.02.821.437 2.463-.876 2.463H106.2a2.4 2.4 0 0 1-1.498-.527L88.615 31.449a4.45 4.45 0 0 0 1.836-1.341m-34.462-2.73h4.394v4.373H55.99zm6.452 0h4.394v4.373h-4.394zm-6.452-6.6h4.394v4.374H55.99zm6.452 4.374h4.394v-4.373h-4.394z"
      ></path>
    </g>
    <path
      fill="#006837"
      d="M87.792 61.736q-3.201 0-5.502-1.303a9 9 0 0 1-3.532-3.66q-1.23-2.356-1.23-5.463 0-3.12 1.23-5.463a8.9 8.9 0 0 1 3.532-3.66q2.301-1.316 5.502-1.316t5.489 1.316a8.8 8.8 0 0 1 3.531 3.66q1.243 2.343 1.243 5.463 0 3.107-1.243 5.463a8.9 8.9 0 0 1-3.531 3.66q-2.288 1.302-5.49 1.303m.04-4.858q1.163 0 1.97-.71.807-.711 1.23-1.975.437-1.264.437-2.922 0-1.686-.437-2.95-.423-1.263-1.23-1.974-.807-.71-1.97-.71-1.204 0-2.037.71-.82.71-1.257 1.975-.423 1.263-.423 2.949 0 1.658.423 2.922.436 1.263 1.257 1.974.833.711 2.037.711M55.901 61.354v-20.22h6.468v7.53h1.428l4.934-7.53h7.486l-6.838 10.123 6.904 10.097h-7.579l-4.457-6.714H62.37v6.714zM32.914 61.354v-26.96h18.887v5.292h-12.34v5.53h11.375v5.304H39.46v5.542h12.34v5.292z"
    ></path>
    <path
      fill="#000"
      d="M125 102.55q0 3.768-1.385 6.479-1.386 2.7-3.797 4.159-2.401 1.447-5.46 1.447-3.07 0-5.482-1.447-2.401-1.46-3.786-4.17t-1.385-6.468q0-3.768 1.385-6.467 1.385-2.712 3.786-4.159 2.412-1.459 5.482-1.459 3.059 0 5.46 1.46 2.412 1.446 3.797 4.158 1.385 2.7 1.385 6.467m-3.532 0q0-2.871-.935-4.836-.923-1.976-2.539-2.987-1.605-1.022-3.636-1.022-2.042 0-3.647 1.022-1.605 1.011-2.539 2.987-.924 1.965-.924 4.836t.924 4.848q.934 1.965 2.539 2.987 1.604 1.011 3.647 1.011 2.031 0 3.636-1.011 1.616-1.022 2.539-2.987.935-1.976.935-4.848M77.857 120v-8.696h1.559q.796-.666 1.489-1.896.692-1.229 1.177-3.319.484-2.091.67-5.365l.553-9.937h14.578v20.517h2.677v8.662h-3.416v-5.652h-15.87V120zm5.76-8.696h10.85V93.843h-7.93l-.37 6.881q-.15 2.493-.496 4.48-.334 1.988-.865 3.515-.52 1.517-1.19 2.585M66.606 114.635q-2.378 0-4.248-.815-1.858-.816-2.943-2.263-1.074-1.46-1.154-3.378h3.624a3.1 3.1 0 0 0 .704 1.815q.646.758 1.685 1.172t2.308.413q1.397 0 2.47-.482 1.086-.483 1.697-1.344.612-.873.612-2.01 0-1.183-.612-2.08-.6-.907-1.766-1.424-1.154-.517-2.793-.517h-1.997v-2.895h1.997q1.316 0 2.308-.471 1.005-.47 1.57-1.31.566-.85.566-1.987 0-1.091-.497-1.895a3.33 3.33 0 0 0-1.385-1.275q-.888-.46-2.1-.46-1.155 0-2.159.425-.992.414-1.615 1.195-.624.77-.67 1.85h-3.451q.058-1.908 1.131-3.355 1.085-1.448 2.863-2.263 1.777-.816 3.947-.816 2.274 0 3.924.885 1.662.874 2.562 2.332.912 1.459.9 3.193.012 1.977-1.107 3.355-1.109 1.378-2.955 1.849v.184q2.354.356 3.647 1.861 1.304 1.505 1.293 3.734.012 1.941-1.085 3.48-1.085 1.539-2.966 2.424-1.883.873-4.305.873M53.507 90.787v23.527H49.94V90.787zM25.815 114.314V90.787h3.567v10.224h11.784V90.787h3.578v23.527h-3.578v-10.259H29.382v10.259zM21.795 90.787v3.056H10.622v20.471H7.056V90.787z"
    ></path>
  </svg>
